X: 136
T: No_21_Corn_Dance_Song_(k).krn
N: Derived from No_21_Corn_Dance_Song_(k).krn
%%abc-version 2.0
%%abcx-abcm2ps-target-version 5.9.1 (29 Sep 2008)
%%abc-creator hum2abc beta
%%abcx-conversion-date 2019/03/15 08:38:45
%%humdrum-veritas 2641482457
%%humdrum-veritas-data 2529951310
%%linebreak <none>
%%barnumbers 0
L: 1/4
M: 2/4
K: F clef=bass
[K:clef=bass][M:2/4]CD [I:setbarnb 2]| 
DC ||  
[M:3/4]CCG, ||  
[M:2/4]CB,3//B,// | 
C3/B,/ | 
CG, | 
F,(3:2:1G,/F,/(3:2:1G,// | 
G,/F,/-F, | 
F,D, | 
C,C, | 
D,F, | 
D,C, ||  
[M:3/4]C,C,z ||  
[M:2/4]C,3/C,/ | 
C,2 | 
F,D,3//D,// | 
D,C, | 
D,F, | 
D,C, | 
C,z | 
C,3/C,/ | 
C,2 :|]  



